packages/symbols/svgs/duotone/calendar-plus-duotone.svg

<svg width="24" height="24" viewBox="0 0 24 24" fill="none" xmlns="http://www.w3.org/2000/svg">
<path fill-rule="evenodd" clip-rule="evenodd" d="M7 1C7 0.447715 6.55228 0 6 0C5.44772 0 5 0.447715 5 1V2H3C1.34315 2 0 3.34315 0 5L0 8L0 20C0 21.6569 1.34315 23 3 23H21C22.6569 23 24 21.6569 24 20V8V5C24 3.34315 22.6569 2 21 2H19V1C19 0.447715 18.5523 0 18 0C17.4477 0 17 0.447715 17 1V2H7V1ZM22 7V5C22 4.44772 21.5523 4 21 4H19C19 4.55228 18.5523 5 18 5C17.4477 5 17 4.55228 17 4H7C7 4.55228 6.55228 5 6 5C5.44772 5 5 4.55228 5 4H3C2.44772 4 2 4.44772 2 5V7H22ZM2 9H22V20C22 20.5523 21.5523 21 21 21H3C2.44772 21 2 20.5523 2 20V9Z" fill="black"/>
<path opacity="0.5" fill-rule="evenodd" clip-rule="evenodd" d="M13 12C13 11.4477 12.5523 11 12 11C11.4477 11 11 11.4477 11 12V14H9C8.44772 14 8 14.4477 8 15C8 15.5523 8.44772 16 9 16H11V18C11 18.5523 11.4477 19 12 19C12.5523 19 13 18.5523 13 18V16H15C15.5523 16 16 15.5523 16 15C16 14.4477 15.5523 14 15 14H13V12Z" fill="black"/>
</svg>

<svg width="24" height="24" viewBox="0 0 24 24" xmlns="http://www.w3.org/2000/svg"><path fill-rule="evenodd" clip-rule="evenodd" d="M7 1a1 1 0 0 0-2 0v1H3a3 3 0 0 0-3 3v15a3 3 0 0 0 3 3h18a3 3 0 0 0 3-3V5a3 3 0 0 0-3-3h-2V1a1 1 0 1 0-2 0v1H7V1Zm15 6V5a1 1 0 0 0-1-1h-2a1 1 0 1 1-2 0H7a1 1 0 0 1-2 0H3a1 1 0 0 0-1 1v2h20ZM2 9h20v11a1 1 0 0 1-1 1H3a1 1 0 0 1-1-1V9Z"/><path opacity=".5" fill-rule="evenodd" clip-rule="evenodd" d="M13 12a1 1 0 1 0-2 0v2H9a1 1 0 1 0 0 2h2v2a1 1 0 1 0 2 0v-2h2a1 1 0 1 0 0-2h-2v-2Z"/></svg>
